X:1
T:Title
%%score { ( 1 3 ) | ( 2 4 ) }
L:1/8
M:6/4
K:Ab
V:1 treble nm="Grand Piano"
V:3 treble 
V:2 bass 
V:4 bass 
V:1
 z6 z4[Q:1/4=114] [CE][CE] | [CE]2 [CA]2 [DB]2 [Ec]2 [Fd]2 [Ec]2 | B2 A2 F2 [CE]4 [CE][CE] | %3
 [A,DF]2 [A,EG]2 [DFA]2 [=DFA]2 [B,DF]2 [Dc]2 | c2 B2 =A2 B4 EE | %5
 [CE]2 [CA]2 [DB]2 [Ec]2 [Fd]2 [Ec]2 | F2 [FB]2 [Fc]2 [Fd]4 [FBd]2 | [EAc]2 [Ae]2 [Fd]2 c2 E2 B2 | %8
[M:5/4] A2- [EA-]2 [DA-]2 [CA]4 |[M:1/4] [CE]2 |[M:6/4] [CE]2 [EA]2 B2 c2 d2 c2 | B12 | %12
 E2 B2 c2 d2 e2 d2 | c12 | e2 c2 B2 [CEA]2 [B,EG]2 [A,EA]2 | [A,F]2 [FB]2 [Fc]2 [Fd]4 [FBd]2 | %16
 [EAc]2 [Ae]2 [Fd]2 c2 E2 B2 |[M:5/4] A2- A2- A6 |] %18
V:2
 z6 z4 [A,,A,][A,,A,] | [A,,A,]2 [A,,A,]2 [A,,A,]2 [A,,A,]2 [A,,A,]2 [A,,A,]2 | %2
 [D,F,D]2 [D,F,D]2 [D,A,D]2 [A,,A,]4 [A,,A,][A,,A,] | D,2 D,2 D,2 B,,2 B,,2 [B,,A,]2 | %4
 [E,A,E]2 [E,G,E]2 [E,_G,E]2 [E,=G,E]4 [E,G,D][E,G,D] | %5
 [A,,A,]2 [A,,A,]2 [A,,A,]2 [A,,A,]2 [A,,A,]2 [A,,A,]2 | [D,A,]2 [D,A,]2 [C,=A,]2 [B,,B,]4 B,,2 | %7
 E,2 [E,C]2 [E,A,]2 [E,A,E]2 [E,A,C]2 [E,D]2 |[M:5/4] E,2 G,2 F,2 E,4 |[M:1/4] [A,,A,]2 | %10
[M:6/4] [A,,A,]2 [C,A,]2 [E,G,E]2[K:treble] [A,E]2 [A,F]2[K:bass] [A,E]2 | %11
 [G,E]2 B,2 A,2 G,2 G,2 [E,G,]2 | [E,G,]2 [E,G,E]2 [E,A,E]2 [E,B,E]2 [E,CE]2 [E,B,E]2 | %13
 A,2 E,2[K:treble] D2 C2 A,2 [A,CA][A,CA] | [A,CA]2 [A,EA]2[K:bass] [A,DE]2 A,,2 B,,2 C,2 | %15
 D,2 [D,A,]2 [C,=A,]2 [B,,B,]4 B,,2 | E,2 [E,C]2 [E,A,]2 [E,A,E]2 [E,A,C]2 [E,D]2 | %17
[M:5/4] E,2 G,2 F,2 E,4 |] %18
V:3
 x12 | x12 | x12 | x12 | x12 | x12 | x12 | x12 |[M:5/4] C2 z2 z2 z4 |[M:1/4] x2 |[M:6/4] x12 | %11
 z2 G2 F2 E2 D2 E2 | x12 | E2 A2 F2 E2 C2 ee | x12 | x12 | x12 |[M:5/4] C2 E2 D2 C4 |] %18
V:4
 x12 | x12 | x12 | x12 | x12 | x12 | x12 | x12 |[M:5/4] A,,2- A,,2- A,,6 |[M:1/4] x2 | %10
[M:6/4] x6[K:treble] x4[K:bass] x2 | E,12 | x12 | A,,12[K:treble] | x4[K:bass] x8 | x12 | x12 | %17
[M:5/4] A,,2- A,,2- A,,6 |] %18

